!!!COM:	Bach, Johann Sebastian
!!!CDT:	1685/02/21/-1750/07/28/
!!!OTL@@DE:	Herr, nun la&szlig; in Friede
!!!SCT:	BWV 337
!!!PC#:	190
!!!AGN:	chorale
**kern	**kern	**kern	**kern
*ICvox	*ICvox	*ICvox	*ICvox
*Ibass	*Itenor	*Ialto	*Isoprn
*I"Bass	*I"Tenor	*I"Alto	*I"Soprano
*clefF4	*clefGv2	*clefG2	*clefG2
*k[]	*k[]	*k[]	*k[]
*a:	*a:	*a:	*a:
*M4/4	*M4/4	*M4/4	*M4/4
*met(c)	*met(c)	*met(c)	*met(c)
*MM100	*MM100	*MM100	*MM100
=1-	=1-	=1-	=1-
8EL	4G	4B	4e
8DJ	.	.	.
[4C	8AL	4c	4e
.	8G#J	.	.
8CL]	4A	4d	4f#
8D	.	.	.
8C	4B	4d	4g#
8BBJ	.	.	.
=2	=2	=2	=2
8AAL	4c	4e	2a
8GGJ	.	.	.
4FF	8BL	4d	.
.	8AJ	.	.
2EE;	2B;	2e;	2g#;
=3	=3	=3	=3
8DL	4B	4e	4g#
8F	.	.	.
8E	4B	4e	4g#
8DJ	.	.	.
8CL	4c	8eL	4a
8D	.	8f#J	.
8C	4d	4g#	4b
8BBJ	.	.	.
=4	=4	=4	=4
8AAL	2e	2a	2cc
8BBJ	.	.	.
8CL	.	.	.
8DJ	.	.	.
2E;	2e;	4a	2b;
.	.	4g#;	.
=5	=5	=5	=5
8EL	4.e	8gnL	4cc
8D	.	8f#	.
8E	.	8g	4cc
8F#J	8d	8aJ	.
8GL	4d	4g	4b
8F#	.	.	.
8G	[4d	4fn	4b
8G#J	.	.	.
=6	=6	=6	=6
4A	8dL]	4e	2a
.	[8cJ	.	.
4D#	8cL]	4f#	.
.	8BJ	.	.
2E;	2B;	2e;	2g#;
=7	=7	=7	=7
8FL	8AL	4c	4a
8E	8GJ	.	.
8Dn	4F	8fnL	4a
8CJ	.	8eJ	.
8BBL	4G	8dL	4gn
8AA	.	8c	.
8BB	8DL	8d	4g
8C#J	8AJ	8eJ	.
=8	=8	=8	=8
8DL	4A	2d	2f
8Cn	.	.	.
8BB	4G	.	.
8GGJ	.	.	.
2C;	2G;	2c;	2e;
=9	=9	=9	=9
8CL	4c	4g	4ee
8D	.	.	.
8E	[4c	4g	4ee
8FJ	.	.	.
8GL	4c]	4g	4dd
8A	.	.	.
8B	[4B	8gL	4dd
8GJ	.	8fJ	.
=10	=10	=10	=10
8AAL	4B]	2e	2cc
8BB	.	.	.
8C	[4A	.	.
8DJ	.	.	.
2E;	4A]	2e;	2b;
.	4G#;	.	.
=11	=11	=11	=11
8FFL	8AL	4c	4a
8GGn	8BJ	.	.
8AA	4c	4f	4a
8BBJ	.	.	.
8CL	4c	4f	4g
8D	.	.	.
8E	8cL	[4e	4g
8CJ	8B-J	.	.
=12	=12	=12	=12
2D	8AL	4e]	2f
.	8c	.	.
.	8Bn	8dL	.
.	8AJ	8cJ	.
2E;	2G#;	2B;	2e;
==	==	==	==
*-	*-	*-	*-
!!!hum2abc: -Q ''
!!!title: @{PC#}. @{OTL@@DE}
!!!YOR1: 371 vierstimmige Choralges&auml;nge von Johann Sebastian Bach, 
!!!YOR2: 4th ed. by Alfred D&ouml;rffel (Leipzig: Breitkopf und H&auml;rtel, 
!!!YOR2: c.1875). 178 pp. Plate "V.A.10".  reprint: J.S. Bach, 371 Four-Part 
!!!YOR4: Chorales (New York: Associated Music Publishers, Inc., c.1940).
!!!SMS: B&H, 4th ed, Alfred D&ouml;rffel, c.1875, plate V.A.10
!!!EED:  Craig Stuart Sapp
!!!EEV:  2009/05/22
